assets/2023/icons/cargoLock.svg

<svg width="16" height="16" viewBox="0 0 16 16" fill="none" xmlns="http://www.w3.org/2000/svg">
<path d="M1 2C1 1.44772 1.44772 1 2 1H6C6.55228 1 7 1.44772 7 2V6C7 6.55228 6.55228 7 6 7H2C1.44772 7 1 6.55228 1 6V2Z" fill="#FFF4EB"/>
<path d="M8 2C8 1.44772 8.44772 1 9 1H13C13.5523 1 14 1.44772 14 2V6C14 6.55228 13.5523 7 13 7H9C8.44772 7 8 6.55228 8 6V2Z" fill="#FFF4EB"/>
<path d="M8 9C8 8.44772 8.44772 8 9 8H10.764C10.289 8.53076 10.0001 9.23165 10.0001 10V10.2676C9.40232 10.6134 9.00012 11.2597 9.00012 12L9.00007 14C8.44779 14 8 13.5523 8 13V9Z" fill="#FFF4EB"/>
<path d="M1 9C1 8.44772 1.44772 8 2 8H6C6.55228 8 7 8.44772 7 9V13C7 13.5523 6.55228 14 6 14H2C1.44772 14 1 13.5523 1 13V9Z" fill="#FFF4EB"/>
<path fill-rule="evenodd" clip-rule="evenodd" d="M2 1C1.44772 1 1 1.44772 1 2V6C1 6.55228 1.44772 7 2 7H6C6.55228 7 7 6.55228 7 6V2C7 1.44772 6.55228 1 6 1H2ZM6 2H2L2 6H6V2Z" fill="#E66D17"/>
<path fill-rule="evenodd" clip-rule="evenodd" d="M9 1C8.44772 1 8 1.44772 8 2V6C8 6.55228 8.44772 7 9 7H13C13.5523 7 14 6.55228 14 6V2C14 1.44772 13.5523 1 13 1H9ZM13 2H9V6H13V2Z" fill="#E66D17"/>
<path d="M9 8C8.44772 8 8 8.44772 8 9V13C8 13.5523 8.44772 14 9 14V9H10.1708C10.3025 8.62738 10.5058 8.28855 10.764 8H9Z" fill="#E66D17"/>
<path fill-rule="evenodd" clip-rule="evenodd" d="M2 8C1.44772 8 1 8.44772 1 9V13C1 13.5523 1.44772 14 2 14H6C6.55228 14 7 13.5523 7 13V9C7 8.44772 6.55228 8 6 8H2ZM6 9H2L2 13H6V9Z" fill="#E66D17"/>
<rect x="11" y="12" width="4" height="3" fill="#EBECF0"/>
<path fill-rule="evenodd" clip-rule="evenodd" d="M15 11V10C15 8.89543 14.1046 8 13 8C11.8954 8 11 8.89543 11 10V11C10.4477 11 10 11.4477 10 12V15C10 15.5523 10.4477 16 11 16H15C15.5523 16 16 15.5523 16 15V12C16 11.4477 15.5523 11 15 11ZM12 10C12 9.44772 12.4477 9 13 9C13.5523 9 14 9.44772 14 10V11H12V10ZM11 15L11 12H15V15H11Z" fill="#6C707E"/>
</svg>

<svg xmlns="http://www.w3.org/2000/svg" width="16" height="16" fill="none" viewBox="0 0 16 16"><path fill="#FFF4EB" d="M1 2a1 1 0 0 1 1-1h4a1 1 0 0 1 1 1v4a1 1 0 0 1-1 1H2a1 1 0 0 1-1-1zm7 0a1 1 0 0 1 1-1h4a1 1 0 0 1 1 1v4a1 1 0 0 1-1 1H9a1 1 0 0 1-1-1zm0 7a1 1 0 0 1 1-1h1.764A3 3 0 0 0 10 10v.268A2 2 0 0 0 9 12v2a1 1 0 0 1-1-1zM1 9a1 1 0 0 1 1-1h4a1 1 0 0 1 1 1v4a1 1 0 0 1-1 1H2a1 1 0 0 1-1-1z"/><path fill="#E66D17" fill-rule="evenodd" d="M2 1a1 1 0 0 0-1 1v4a1 1 0 0 0 1 1h4a1 1 0 0 0 1-1V2a1 1 0 0 0-1-1zm4 1H2v4h4zm3-1a1 1 0 0 0-1 1v4a1 1 0 0 0 1 1h4a1 1 0 0 0 1-1V2a1 1 0 0 0-1-1zm4 1H9v4h4z" clip-rule="evenodd"/><path fill="#E66D17" d="M9 8a1 1 0 0 0-1 1v4a1 1 0 0 0 1 1V9h1.17a3 3 0 0 1 .594-1z"/><path fill="#E66D17" fill-rule="evenodd" d="M2 8a1 1 0 0 0-1 1v4a1 1 0 0 0 1 1h4a1 1 0 0 0 1-1V9a1 1 0 0 0-1-1zm4 1H2v4h4z" clip-rule="evenodd"/><path fill="#EBECF0" d="M11 12h4v3h-4z"/><path fill="#6C707E" fill-rule="evenodd" d="M15 11v-1a2 2 0 1 0-4 0v1a1 1 0 0 0-1 1v3a1 1 0 0 0 1 1h4a1 1 0 0 0 1-1v-3a1 1 0 0 0-1-1m-3-1a1 1 0 1 1 2 0v1h-2zm-1 5v-3h4v3z" clip-rule="evenodd"/></svg>
